flaticon/medical/kidney.svg

<svg xmlns="http://www.w3.org/2000/svg" width="32" height="32" viewBox="0 0 24 24">
    <path d="M 21.332031 5.328125 C 19.117188 1.625 15.738281 -0.304688 12.046875 0.0390625 C 9.378906 0.289062 7.609375 1.203125 6.785156 2.765625 C 5.386719 5.410156 7.261719 8.863281 7.34375 9.007812 L 7.457031 9.214844 L 7.6875 9.214844 C 7.695312 9.214844 7.785156 9.21875 7.933594 9.246094 C 7.605469 9.828125 7.414062 10.496094 7.414062 11.210938 L 7.414062 15.203125 C 7.414062 18.722656 4.550781 21.585938 1.03125 21.585938 C 0.808594 21.585938 0.628906 21.765625 0.628906 21.984375 C 0.628906 22.207031 0.808594 22.386719 1.03125 22.386719 C 4.925781 22.386719 8.105469 19.261719 8.203125 15.386719 C 9.199219 14.453125 10.511719 14.089844 11.769531 14.292969 C 11.9375 15.121094 12.050781 16.085938 12.082031 17.207031 C 12.160156 20.046875 12.875 22.042969 14.203125 23.136719 C 15.109375 23.882812 16.058594 24 16.566406 24 C 16.726562 24 16.839844 23.988281 16.898438 23.980469 C 16.910156 23.980469 16.921875 23.980469 16.9375 23.980469 C 18.808594 23.980469 20.246094 23.390625 21.21875 22.230469 C 22.972656 20.125 22.597656 16.851562 22.476562 16.085938 C 24.007812 13.585938 23.53125 9.003906 21.332031 5.328125 Z M 10.496094 11.066406 C 9.746094 11.492188 8.941406 12.222656 8.210938 13.460938 L 8.210938 11.210938 C 8.210938 10.582031 8.398438 9.996094 8.710938 9.503906 C 9.242188 9.75 9.902344 10.210938 10.496094 11.066406 Z M 8.839844 13.972656 C 9.511719 12.796875 10.242188 12.125 10.910156 11.75 C 11.160156 12.226562 11.386719 12.789062 11.570312 13.457031 C 10.640625 13.367188 9.695312 13.539062 8.839844 13.972656 Z M 20.605469 21.71875 C 19.792969 22.691406 18.558594 23.183594 16.933594 23.183594 C 16.914062 23.183594 16.894531 23.183594 16.875 23.183594 L 16.808594 23.1875 C 16.761719 23.195312 15.703125 23.347656 14.695312 22.511719 C 13.578125 21.578125 12.949219 19.738281 12.878906 17.1875 C 12.851562 16.1875 12.761719 15.308594 12.628906 14.523438 C 13.195312 14.738281 13.730469 15.070312 14.199219 15.527344 L 14.199219 16.980469 C 14.199219 17.199219 14.375 17.378906 14.597656 17.378906 C 14.816406 17.378906 14.996094 17.199219 14.996094 16.980469 L 14.996094 15.78125 L 16.195312 15.78125 C 16.414062 15.78125 16.59375 15.605469 16.59375 15.382812 C 16.59375 15.164062 16.414062 14.984375 16.195312 14.984375 L 14.785156 14.984375 C 14.101562 14.308594 13.292969 13.855469 12.445312 13.621094 C 12.238281 12.757812 11.96875 12.035156 11.664062 11.433594 C 11.75 11.40625 11.835938 11.386719 11.914062 11.367188 C 12.800781 11.1875 13.5 11.441406 13.679688 11.617188 L 14.808594 12.746094 C 14.882812 12.824219 14.988281 12.863281 15.089844 12.863281 C 15.191406 12.863281 15.292969 12.824219 15.371094 12.746094 C 15.527344 12.589844 15.527344 12.339844 15.371094 12.183594 L 14.523438 11.335938 L 15.371094 10.488281 C 15.527344 10.332031 15.527344 10.082031 15.371094 9.925781 C 15.214844 9.769531 14.960938 9.769531 14.808594 9.925781 L 13.910156 10.820312 C 13.417969 10.554688 12.625 10.40625 11.753906 10.585938 C 11.59375 10.621094 11.425781 10.664062 11.253906 10.722656 C 10.613281 9.75 9.882812 9.1875 9.25 8.863281 C 9.820312 8.339844 10.574219 8.019531 11.40625 8.019531 L 13 8.019531 C 13.222656 8.019531 13.398438 7.839844 13.398438 7.621094 C 13.398438 7.398438 13.222656 7.222656 13 7.222656 L 11.804688 7.222656 L 11.804688 6.023438 C 11.804688 5.804688 11.625 5.625 11.40625 5.625 C 11.183594 5.625 11.003906 5.804688 11.003906 6.023438 L 11.003906 7.242188 C 9.992188 7.34375 9.09375 7.828125 8.445312 8.542969 C 8.246094 8.488281 8.074219 8.457031 7.949219 8.441406 C 7.601562 7.722656 6.460938 5.082031 7.492188 3.136719 C 8.183594 1.828125 9.742188 1.054688 12.121094 0.835938 C 15.492188 0.519531 18.59375 2.308594 20.648438 5.738281 C 22.738281 9.234375 23.203125 13.550781 21.726562 15.78125 L 21.636719 15.914062 L 21.667969 16.074219 C 21.671875 16.109375 22.324219 19.660156 20.605469 21.71875 Z M 20.605469 21.71875"/>
    <path d="M 21.015625 12.800781 C 20.984375 12.761719 20.945312 12.726562 20.902344 12.699219 C 20.070312 12.21875 19.476562 11.453125 19.234375 10.546875 C 18.992188 9.636719 19.121094 8.679688 19.601562 7.847656 C 19.605469 7.839844 19.605469 7.832031 19.609375 7.824219 C 19.628906 7.785156 19.644531 7.742188 19.652344 7.699219 C 19.664062 7.597656 19.636719 7.488281 19.570312 7.40625 C 19.507812 7.320312 19.414062 7.265625 19.308594 7.253906 C 19.253906 7.246094 19.203125 7.25 19.152344 7.261719 C 18.222656 7.511719 17.257812 7.382812 16.425781 6.90625 C 15.597656 6.425781 15.003906 5.648438 14.753906 4.722656 C 14.699219 4.511719 14.480469 4.382812 14.265625 4.441406 C 14.050781 4.496094 13.925781 4.714844 13.984375 4.929688 C 14.285156 6.0625 15.011719 7.011719 16.027344 7.597656 C 16.703125 7.988281 17.453125 8.1875 18.214844 8.1875 C 18.335938 8.1875 18.457031 8.171875 18.582031 8.160156 C 18.277344 8.992188 18.234375 9.890625 18.464844 10.753906 C 18.695312 11.613281 19.179688 12.367188 19.855469 12.933594 C 17.976562 13.824219 16.9375 15.957031 17.496094 18.035156 C 17.542969 18.214844 17.703125 18.332031 17.878906 18.332031 C 17.914062 18.332031 17.949219 18.328125 17.984375 18.316406 C 18.195312 18.261719 18.324219 18.042969 18.265625 17.828125 C 17.753906 15.917969 18.890625 13.941406 20.804688 13.429688 C 20.804688 13.429688 20.804688 13.429688 20.808594 13.429688 C 20.851562 13.417969 20.890625 13.394531 20.929688 13.367188 C 20.941406 13.363281 20.949219 13.355469 20.957031 13.347656 C 20.992188 13.320312 21.023438 13.285156 21.046875 13.246094 C 21.050781 13.238281 21.050781 13.226562 21.054688 13.21875 C 21.074219 13.179688 21.089844 13.140625 21.097656 13.097656 C 21.109375 12.992188 21.082031 12.886719 21.015625 12.800781 Z M 21.015625 12.800781"/>
</svg>

<svg xmlns="http://www.w3.org/2000/svg" width="32" height="32" viewBox="0 0 24 24">
    <path d="M21.332 5.328C19.117 1.625 15.738-.305 12.047.04 9.379.29 7.609 1.203 6.785 2.766c-1.398 2.644.477 6.097.559 6.242l.113.207h.23c.008 0 .098.004.247.031a3.986 3.986 0 0 0-.52 1.965v3.992a6.39 6.39 0 0 1-6.383 6.383.401.401 0 1 0 0 .8c3.895 0 7.074-3.124 7.172-7a4.204 4.204 0 0 1 3.567-1.093c.168.828.28 1.793.312 2.914.078 2.84.793 4.836 2.121 5.93a3.722 3.722 0 0 0 2.363.863c.16 0 .274-.012.332-.02h.04c1.87 0 3.308-.59 4.28-1.75 1.755-2.105 1.38-5.378 1.259-6.144 1.53-2.5 1.054-7.082-1.145-10.758zm-10.836 5.738c-.75.426-1.555 1.157-2.285 2.395v-2.25c0-.629.187-1.215.5-1.707.531.246 1.191.707 1.785 1.562zM8.84 13.973c.672-1.176 1.402-1.848 2.07-2.223.25.477.477 1.04.66 1.707a4.972 4.972 0 0 0-2.73.516zm11.765 7.746c-.812.972-2.046 1.465-3.671 1.465h-.059l-.066.003c-.047.008-1.106.16-2.114-.675-1.117-.934-1.746-2.774-1.816-5.325-.027-1-.117-1.878-.25-2.664a4.558 4.558 0 0 1 1.57 1.004v1.453a.398.398 0 1 0 .797 0v-1.199h1.2a.398.398 0 1 0 0-.797h-1.41a5.353 5.353 0 0 0-2.34-1.363 9.979 9.979 0 0 0-.782-2.187c.086-.028.172-.047.25-.067.887-.18 1.586.074 1.766.25l1.129 1.13a.396.396 0 0 0 .563 0 .396.396 0 0 0 0-.563l-.849-.848.848-.848a.396.396 0 0 0 0-.562.396.396 0 0 0-.562 0l-.899.894c-.492-.265-1.285-.414-2.156-.234a4.59 4.59 0 0 0-.5.137c-.64-.973-1.371-1.536-2.004-1.86a3.175 3.175 0 0 1 2.156-.843H13c.223 0 .398-.18.398-.399A.395.395 0 0 0 13 7.223h-1.195v-1.2a.4.4 0 0 0-.801 0v1.22a3.993 3.993 0 0 0-2.559 1.3 3.608 3.608 0 0 0-.496-.102c-.347-.718-1.488-3.359-.457-5.304.692-1.309 2.25-2.082 4.63-2.301 3.37-.316 6.472 1.473 8.526 4.902 2.09 3.496 2.555 7.813 1.079 10.043l-.09.133.031.16c.004.035.656 3.586-1.063 5.645zm0 0"/>
    <path d="M21.016 12.8a.47.47 0 0 0-.114-.1 3.536 3.536 0 0 1-1.668-2.153 3.54 3.54 0 0 1 .368-2.7c.003-.007.003-.015.007-.023a.474.474 0 0 0 .043-.125.398.398 0 0 0-.082-.293.373.373 0 0 0-.261-.152.418.418 0 0 0-.157.008c-.93.25-1.894.12-2.726-.356a3.592 3.592 0 0 1-1.672-2.183.396.396 0 0 0-.488-.282.393.393 0 0 0-.282.489 4.35 4.35 0 0 0 2.043 2.668c.676.39 1.426.59 2.188.59.12 0 .242-.016.367-.028a4.293 4.293 0 0 0 1.273 4.774 4.393 4.393 0 0 0-2.359 5.101.395.395 0 0 0 .488.281.396.396 0 0 0 .282-.488 3.596 3.596 0 0 1 2.539-4.398h.004a.398.398 0 0 0 .12-.063.374.374 0 0 0 .117-.121c.005-.008.005-.02.009-.027a.448.448 0 0 0 .043-.121.408.408 0 0 0-.082-.297zm0 0"/>
</svg>
